calendar-heart.svg

<svg fill="currentColor" viewBox="0 0 24 24"><path d="M19 19V8H5v11zM16 1h2v2h1a2 2 0 0 1 2 2v14c0 1.11-.89 2-2 2H5a2 2 0 0 1-2-2V5c0-1.1.9-2 2-2h1V1h2v2h8zm-4 16.17-.58-.53C9.36 14.77 8 13.54 8 12.03c0-1.23.97-2.2 2.2-2.2.7 0 1.36.32 1.8.83.44-.51 1.1-.83 1.8-.83 1.23 0 2.2.97 2.2 2.2 0 1.51-1.36 2.74-3.42 4.61z"/></svg>

<svg  viewBox="0 0 24 24" fill="currentColor"><path  d="M19 19V8H5V19H19M16 1H18V3H19C20.11 3 21 3.9 21 5V19C21 20.11 20.11 21 19 21H5C3.9 21 3 20.11 3 19V5C3 3.9 3.9 3 5 3H6V1H8V3H16V1M12 17.17L11.42 16.64C9.36 14.77 8 13.54 8 12.03C8 10.8 8.97 9.83 10.2 9.83C10.9 9.83 11.56 10.15 12 10.66C12.44 10.15 13.1 9.83 13.8 9.83C15.03 9.83 16 10.8 16 12.03C16 13.54 14.64 14.77 12.58 16.64L12 17.17Z"/></svg>
